X:57
T: Mllerlied (Band 1), S. 169
N: P0832
O: Lothringen
S: PINCK, Louis: Verklingende Weisen, Bd 1, Metz 1928]
R: Arbeits-, Berufslied]
M: 3/8
L: 1/16
K: G
D2 | G2G2G2 | A2A2B2 | G2F2G2 | D2z2
D2 | E2F2DD | E2F2G2 | A2G2F2 | G2z2
D2 | G4G2 | A3Bc2 | d6 | A2z4
d4dd | c2B2AA | G2F2G2 | A2B2A2 | D2z2
D2 | E2F2E2 | E2F2G2 | A6 | G2z4
d4dd | c2B2AA | G2F2G2 | A2B2A2 | D2z2
D2 | E2F2E2 | E2F2G2 | A6 | G2z2

